; generated by PrusaSlicer 2.3.0+win64 on 2021-02-28 at 14:19:16 UTC

; 

; external perimeters extrusion width = 0.45mm
; perimeters extrusion width = 0.45mm
; infill extrusion width = 0.45mm
; solid infill extrusion width = 0.45mm
; top infill extrusion width = 0.40mm
; first layer extrusion width = 0.42mm

M73 P0 R43
M73 Q0 S43
M201 X1000 Y1000 Z200 E5000 ; sets maximum accelerations, mm/sec^2
M203 X200 Y200 Z12 E120 ; sets maximum feedrates, mm/sec
M204 P1250 R1250 T1250 ; sets acceleration (P, T) and retract acceleration (R), mm/sec^2
M205 X8.00 Y8.00 Z0.40 E4.50 ; sets the jerk limits, mm/sec
M205 S0 T0 ; sets the minimum extruding and travel feed rate, mm/sec
M107
;TYPE:Custom
M862.3 P "MK3S" ; printer model check
M862.1 P0.4 ; nozzle diameter check
M115 U3.9.2 ; tell printer latest fw version
G90 ; use absolute coordinates
M83 ; extruder relative mode
M104 S230 ; set extruder temp
M140 S50 ; set bed temp
M190 S50 ; wait for bed temp
M109 S230 ; wait for extruder temp
G28 W ; home all without mesh bed level
G80 ; mesh bed leveling
G1 Y-3.0 F1000.0 ; go outside print area
G92 E0.0
G1 X60.0 E9.0 F1000.0 ; intro line
G1 X100.0 E12.5 F1000.0 ; intro line
G92 E0.0
M221 S95

; Don't change E values below. Excessive value can damage the printer.
M907 E430 ; set extruder motor current
G21 ; set units to millimeters
G90 ; use absolute coordinates
M83 ; use relative distances for extrusion
M900 K0
;LAYER_CHANGE
;Z:0.2
;HEIGHT:0.2
;BEFORE_LAYER_CHANGE
G92 E0.0
;0.2


M73 P0 R42
G1 E-2.00000 F3000.000
G1 Z0.200 F10800.000
;AFTER_LAYER_CHANGE
;0.2
G1 X87.190 Y95.459
G1 E2.00000 F1500.000
M204 S1000
;TYPE:Skirt
;WIDTH:0.42
G1 F1200.000
G1 X87.741 Y94.984 E0.02512
G1 X88.411 Y94.697 E0.02512
G1 X89.000 Y94.623 E0.02048
G1 X161.004 Y94.623 E2.48339
G1 X161.895 Y94.798 E0.03134
G1 X162.659 Y95.297 E0.03146
G1 X163.178 Y96.048 E0.03146
G1 X163.376 Y96.934 E0.03134
G1 X163.366 Y113.232 E0.56211
G1 X163.186 Y113.934 E0.02499
G1 X162.803 Y114.549 E0.02499
G1 X162.252 Y115.020 E0.02499
G1 X161.589 Y115.303 E0.02486
G1 X161.000 Y115.377 E0.02048
G1 X88.947 Y115.376 E2.48510
G1 X88.190 Y115.235 E0.02655
G1 X87.521 Y114.861 E0.02642
G1 X87.004 Y114.291 E0.02655
G1 X86.697 Y113.589 E0.02642
G1 X86.623 Y113.009 E0.02018
G1 X86.633 Y96.783 E0.55961
G1 X86.808 Y96.080 E0.02499
G1 X87.158 Y95.511 E0.02305
; printing object Buttons Membrane v1.stl id:0 copy 0
G1 E-2.00000 F3000.000
G1 X130.705 Y104.559 F10800.000
G1 E2.00000 F1500.000
;TYPE:Perimeter
G1 F1200.000
G1 X130.744 Y104.368 E0.00674
G1 X130.851 Y104.067 E0.01103
G1 X130.998 Y103.783 E0.01103
G1 X131.183 Y103.522 E0.01103
G1 X131.401 Y103.288 E0.01103
G1 X131.649 Y103.086 E0.01103
G1 X131.922 Y102.920 E0.01103
G1 X132.216 Y102.793 E0.01103
G1 X132.523 Y102.706 E0.01103
G1 X132.840 Y102.663 E0.01103
G1 X133.160 Y102.663 E0.01103
G1 X133.477 Y102.706 E0.01103
G1 X133.784 Y102.793 E0.01103
G1 X134.078 Y102.920 E0.01103
G1 X134.351 Y103.086 E0.01103
G1 X134.599 Y103.288 E0.01103
G1 X134.817 Y103.522 E0.01103
G1 X135.002 Y103.783 E0.01103
G1 X135.149 Y104.067 E0.01103
G1 X135.256 Y104.368 E0.01103
G1 X135.324 Y104.696 E0.01154
G1 X135.332 Y105.184 E0.01686
G1 X135.260 Y105.621 E0.01526
G1 X135.149 Y105.933 E0.01143
G1 X135.002 Y106.217 E0.01103
G1 X134.817 Y106.478 E0.01103
G1 X134.599 Y106.712 E0.01103
G1 X134.351 Y106.914 E0.01103
G1 X134.078 Y107.080 E0.01103
G1 X133.784 Y107.207 E0.01103
G1 X133.477 Y107.294 E0.01103
G1 X133.160 Y107.337 E0.01103
G1 X132.840 Y107.337 E0.01103
G1 X132.523 Y107.294 E0.01103
G1 X132.216 Y107.207 E0.01103
G1 X131.922 Y107.080 E0.01103
G1 X131.649 Y106.914 E0.01103
M73 Q0 S42
G1 X131.389 Y106.703 E0.01154
G1 X131.074 Y106.329 E0.01686
G1 X130.855 Y105.944 E0.01526
G1 X130.739 Y105.618 E0.01195
G1 X130.664 Y105.135 E0.01686
G1 X130.692 Y104.618 E0.01785
G1 X131.062 Y104.695 F10800.000
;TYPE:External perimeter
G1 F1200.000
G1 X131.108 Y104.470 E0.00792
G1 X131.198 Y104.217 E0.00925
G1 X131.321 Y103.979 E0.00925
G1 X131.476 Y103.760 E0.00925
G1 X131.659 Y103.564 E0.00925
G1 X131.867 Y103.395 E0.00925
G1 X132.096 Y103.256 E0.00925
G1 X132.342 Y103.149 E0.00925
G1 X132.600 Y103.076 E0.00925
G1 X132.866 Y103.040 E0.00925
G1 X133.134 Y103.040 E0.00925
G1 X133.400 Y103.076 E0.00925
G1 X133.658 Y103.149 E0.00925
G1 X133.904 Y103.256 E0.00925
G1 X134.133 Y103.395 E0.00925
G1 X134.341 Y103.564 E0.00925
G1 X134.524 Y103.760 E0.00925
G1 X134.679 Y103.979 E0.00925
G1 X134.802 Y104.217 E0.00925
G1 X134.892 Y104.470 E0.00925
G1 X134.947 Y104.738 E0.00943
G1 X134.955 Y105.156 E0.01445
G1 X134.893 Y105.526 E0.01292
G1 X134.802 Y105.783 E0.00939
G1 X134.679 Y106.021 E0.00925
G1 X134.524 Y106.240 E0.00925
G1 X134.341 Y106.436 E0.00925
G1 X134.133 Y106.605 E0.00925
G1 X133.904 Y106.744 E0.00925
G1 X133.658 Y106.851 E0.00925
G1 X133.400 Y106.924 E0.00925
G1 X133.134 Y106.960 E0.00925
G1 X132.866 Y106.960 E0.00925
G1 X132.600 Y106.924 E0.00925
G1 X132.342 Y106.851 E0.00925
G1 X132.096 Y106.744 E0.00925
G1 X131.867 Y106.605 E0.00925
G1 X131.655 Y106.432 E0.00943
G1 X131.385 Y106.112 E0.01445
G1 X131.199 Y105.787 E0.01292
G1 X131.106 Y105.525 E0.00958
G1 X131.042 Y105.111 E0.01445
G1 X131.052 Y104.754 E0.01233
G1 X130.878 Y104.557 F10800.000
G1 E-2.00000 F3000.000
G1 X119.343 Y104.988 F10800.000
G1 E2.00000 F1500.000
;TYPE:Perimeter
G1 F1200.000
G1 X119.321 Y105.319 E0.01143
G1 X119.256 Y105.632 E0.01103
G1 X119.149 Y105.933 E0.01103
G1 X119.002 Y106.217 E0.01103
G1 X118.817 Y106.478 E0.01103
G1 X118.599 Y106.712 E0.01103
G1 X118.351 Y106.914 E0.01103
G1 X118.078 Y107.080 E0.01103
G1 X117.784 Y107.207 E0.01103
G1 X117.477 Y107.294 E0.01103
G1 X117.160 Y107.337 E0.01103
G1 X116.840 Y107.337 E0.01103
G1 X116.523 Y107.294 E0.01103
G1 X116.216 Y107.207 E0.01103
G1 X115.922 Y107.080 E0.01103
G1 X115.649 Y106.914 E0.01103
G1 X115.389 Y106.703 E0.01154
G1 X115.074 Y106.329 E0.01686
G1 X114.855 Y105.944 E0.01526
G1 X114.739 Y105.618 E0.01195
G1 X114.664 Y105.135 E0.01686
G1 X114.677 Y104.692 E0.01526
G1 X114.744 Y104.368 E0.01143
G1 X114.851 Y104.067 E0.01103
G1 X114.998 Y103.783 E0.01103
G1 X115.183 Y103.522 E0.01103
G1 X115.401 Y103.288 E0.01103
G1 X115.649 Y103.086 E0.01103
G1 X115.922 Y102.920 E0.01103
G1 X116.216 Y102.793 E0.01103
G1 X116.523 Y102.706 E0.01103
G1 X116.840 Y102.663 E0.01103
G1 X117.160 Y102.663 E0.01103
G1 X117.477 Y102.706 E0.01103
G1 X117.784 Y102.793 E0.01103
G1 X118.078 Y102.920 E0.01103
G1 X118.351 Y103.086 E0.01103
G1 X118.599 Y103.288 E0.01103
G1 X118.817 Y103.522 E0.01103
G1 X119.002 Y103.783 E0.01103
G1 X119.156 Y104.080 E0.01154
G1 X119.296 Y104.548 E0.01686
G1 X119.337 Y104.929 E0.01320
G1 X118.962 Y104.969 F10800.000
;TYPE:External perimeter
G1 F1200.000
G1 X118.946 Y105.268 E0.01030
G1 X118.892 Y105.530 E0.00925
G1 X118.802 Y105.783 E0.00925
G1 X118.679 Y106.021 E0.00925
G1 X118.524 Y106.240 E0.00925
G1 X118.341 Y106.436 E0.00925
G1 X118.133 Y106.605 E0.00925
G1 X117.904 Y106.744 E0.00925
G1 X117.658 Y106.851 E0.00925
G1 X117.400 Y106.924 E0.00925
G1 X117.134 Y106.960 E0.00925
G1 X116.866 Y106.960 E0.00925
G1 X116.600 Y106.924 E0.00925
G1 X116.342 Y106.851 E0.00925
G1 X116.096 Y106.744 E0.00925
G1 X115.867 Y106.605 E0.00925
G1 X115.655 Y106.432 E0.00943
G1 X115.385 Y106.112 E0.01445
G1 X115.199 Y105.787 E0.01292
G1 X115.106 Y105.525 E0.00958
G1 X115.042 Y105.111 E0.01445
G1 X115.053 Y104.737 E0.01292
G1 X115.108 Y104.470 E0.00939
G1 X115.198 Y104.217 E0.00925
G1 X115.321 Y103.979 E0.00925
G1 X115.476 Y103.760 E0.00925
G1 X115.659 Y103.564 E0.00925
G1 X115.867 Y103.395 E0.00925
G1 X116.096 Y103.256 E0.00925
G1 X116.342 Y103.149 E0.00925
G1 X116.600 Y103.076 E0.00925
G1 X116.866 Y103.040 E0.00925
G1 X117.134 Y103.040 E0.00925
G1 X117.400 Y103.076 E0.00925
G1 X117.658 Y103.149 E0.00925
G1 X117.904 Y103.256 E0.00925
G1 X118.133 Y103.395 E0.00925
G1 X118.341 Y103.564 E0.00925
G1 X118.524 Y103.760 E0.00925
G1 X118.679 Y103.979 E0.00925
G1 X118.804 Y104.222 E0.00943
G1 X118.925 Y104.623 E0.01445
G1 X118.956 Y104.910 E0.00993
G1 X119.226 Y105.110 F10800.000
G1 E-2.00000 F3000.000
G1 X103.344 Y105.015 F10800.000
G1 E2.00000 F1500.000
;TYPE:Perimeter
G1 F1200.000
G1 X103.286 Y105.500 E0.01686
G1 X103.154 Y105.923 E0.01526
G1 X102.995 Y106.230 E0.01195
G1 X102.693 Y106.615 E0.01686
G1 X102.361 Y106.908 E0.01526
G1 X102.078 Y107.080 E0.01143
G1 X101.784 Y107.207 E0.01103
G1 X101.477 Y107.294 E0.01103
G1 X101.160 Y107.337 E0.01103
G1 X100.840 Y107.337 E0.01103
G1 X100.523 Y107.294 E0.01103
G1 X100.216 Y107.207 E0.01103
G1 X99.922 Y107.080 E0.01103
G1 X99.649 Y106.914 E0.01103
G1 X99.401 Y106.712 E0.01103
G1 X99.183 Y106.478 E0.01103
G1 X98.998 Y106.217 E0.01103
G1 X98.844 Y105.920 E0.01154
G1 X98.704 Y105.452 E0.01686
G1 X98.655 Y104.997 E0.01578
G1 X98.714 Y104.500 E0.01726
G1 X98.850 Y104.063 E0.01578
G1 X99.103 Y103.631 E0.01726
G1 X99.392 Y103.295 E0.01526
G1 X99.649 Y103.086 E0.01143
G1 X99.922 Y102.920 E0.01103
G1 X100.216 Y102.793 E0.01103
G1 X100.523 Y102.706 E0.01103
G1 X100.840 Y102.663 E0.01103
G1 X101.160 Y102.663 E0.01103
G1 X101.477 Y102.706 E0.01103
G1 X101.784 Y102.793 E0.01103
G1 X102.078 Y102.920 E0.01103
G1 X102.351 Y103.086 E0.01103
G1 X102.599 Y103.288 E0.01103
G1 X102.817 Y103.522 E0.01103
G1 X103.002 Y103.783 E0.01103
G1 X103.149 Y104.067 E0.01103
G1 X103.256 Y104.368 E0.01103
G1 X103.321 Y104.681 E0.01103
G1 X103.339 Y104.955 E0.00947
G1 X102.963 Y104.981 F10800.000
;TYPE:External perimeter
G1 F1200.000
G1 X102.915 Y105.421 E0.01528
G1 X102.804 Y105.779 E0.01292
G1 X102.676 Y106.026 E0.00958
G1 X102.418 Y106.355 E0.01445
G1 X102.137 Y106.603 E0.01292
G1 X101.904 Y106.744 E0.00939
G1 X101.658 Y106.851 E0.00925
G1 X101.400 Y106.924 E0.00925
G1 X101.134 Y106.960 E0.00925
G1 X100.866 Y106.960 E0.00925
G1 X100.600 Y106.924 E0.00925
G1 X100.342 Y106.851 E0.00925
G1 X100.096 Y106.744 E0.00925
G1 X99.867 Y106.605 E0.00925
G1 X99.659 Y106.436 E0.00925
G1 X99.476 Y106.240 E0.00925
G1 X99.321 Y106.021 E0.00925
G1 X99.196 Y105.778 E0.00943
G1 X99.075 Y105.377 E0.01445
G1 X99.035 Y104.999 E0.01311
G1 X99.085 Y104.579 E0.01459
G1 X99.198 Y104.216 E0.01311
G1 X99.411 Y103.851 E0.01459
G1 X99.656 Y103.567 E0.01292
G1 X99.867 Y103.395 E0.00939
G1 X100.096 Y103.256 E0.00925
G1 X100.342 Y103.149 E0.00925
G1 X100.600 Y103.076 E0.00925
G1 X100.866 Y103.040 E0.00925
G1 X101.134 Y103.040 E0.00925
G1 X101.400 Y103.076 E0.00925
G1 X101.658 Y103.149 E0.00925
G1 X101.904 Y103.256 E0.00925
G1 X102.133 Y103.395 E0.00925
G1 X102.341 Y103.564 E0.00925
G1 X102.524 Y103.760 E0.00925
G1 X102.679 Y103.979 E0.00925
G1 X102.802 Y104.217 E0.00925
G1 X102.892 Y104.470 E0.00925
G1 X102.946 Y104.732 E0.00925
G1 X102.959 Y104.921 E0.00652
G1 X103.304 Y105.190 F10800.000
G1 E-2.00000 F3000.000
G1 X146.668 Y104.816 F10800.000
G1 E2.00000 F1500.000
;TYPE:Perimeter
G1 F1200.000
G1 X146.740 Y104.379 E0.01526
G1 X146.851 Y104.067 E0.01143
G1 X146.998 Y103.783 E0.01103
G1 X147.183 Y103.522 E0.01103
G1 X147.401 Y103.288 E0.01103
G1 X147.649 Y103.086 E0.01103
G1 X147.922 Y102.920 E0.01103
G1 X148.216 Y102.793 E0.01103
G1 X148.523 Y102.706 E0.01103
G1 X148.840 Y102.663 E0.01103
G1 X149.160 Y102.663 E0.01103
G1 X149.477 Y102.706 E0.01103
G1 X149.784 Y102.793 E0.01103
G1 X150.078 Y102.920 E0.01103
G1 X150.351 Y103.086 E0.01103
G1 X150.599 Y103.288 E0.01103
G1 X150.817 Y103.522 E0.01103
G1 X151.002 Y103.783 E0.01103
G1 X151.149 Y104.067 E0.01103
G1 X151.256 Y104.368 E0.01103
G1 X151.324 Y104.696 E0.01154
G1 X151.332 Y105.184 E0.01686
G1 X151.257 Y105.636 E0.01578
G1 X151.066 Y106.098 E0.01726
G1 X150.825 Y106.470 E0.01526
G1 X150.599 Y106.712 E0.01143
G1 X150.351 Y106.914 E0.01103
G1 X150.078 Y107.080 E0.01103
G1 X149.784 Y107.207 E0.01103
G1 X149.477 Y107.294 E0.01103
G1 X149.160 Y107.337 E0.01103
G1 X148.840 Y107.337 E0.01103
G1 X148.523 Y107.294 E0.01103
G1 X148.216 Y107.207 E0.01103
G1 X147.909 Y107.074 E0.01154
G1 X147.504 Y106.799 E0.01686
G1 X147.190 Y106.488 E0.01526
G1 X146.998 Y106.217 E0.01143
G1 X146.851 Y105.933 E0.01103
G1 X146.744 Y105.632 E0.01103
G1 X146.676 Y105.304 E0.01154
G1 X146.669 Y104.876 E0.01479
G1 X147.046 Y104.869 F10800.000
;TYPE:External perimeter
G1 F1200.000
G1 X147.107 Y104.474 E0.01379
G1 X147.198 Y104.217 E0.00939
G1 X147.321 Y103.979 E0.00925
G1 X147.476 Y103.760 E0.00925
G1 X147.659 Y103.564 E0.00925
G1 X147.867 Y103.395 E0.00925
G1 X148.096 Y103.256 E0.00925
G1 X148.342 Y103.149 E0.00925
G1 X148.600 Y103.076 E0.00925
G1 X148.866 Y103.040 E0.00925
G1 X149.134 Y103.040 E0.00925
G1 X149.400 Y103.076 E0.00925
G1 X149.658 Y103.149 E0.00925
G1 X149.904 Y103.256 E0.00925
G1 X150.133 Y103.395 E0.00925
G1 X150.341 Y103.564 E0.00925
G1 X150.524 Y103.760 E0.00925
G1 X150.679 Y103.979 E0.00925
G1 X150.802 Y104.217 E0.00925
G1 X150.892 Y104.470 E0.00925
G1 X150.947 Y104.738 E0.00943
G1 X150.955 Y105.156 E0.01445
G1 X150.892 Y105.531 E0.01311
G1 X150.731 Y105.922 E0.01459
G1 X150.527 Y106.237 E0.01292
G1 X150.341 Y106.436 E0.00939
G1 X150.133 Y106.605 E0.00925
G1 X149.904 Y106.744 E0.00925
G1 X149.658 Y106.851 E0.00925
G1 X149.400 Y106.924 E0.00925
G1 X149.134 Y106.960 E0.00925
G1 X148.866 Y106.960 E0.00925
G1 X148.600 Y106.924 E0.00925
G1 X148.342 Y106.851 E0.00925
G1 X148.091 Y106.742 E0.00943
G1 X147.745 Y106.507 E0.01445
G1 X147.478 Y106.243 E0.01292
G1 X147.321 Y106.021 E0.00939
G1 X147.198 Y105.783 E0.00925
G1 X147.108 Y105.530 E0.00925
G1 X147.053 Y105.262 E0.00943
G1 X147.047 Y104.929 E0.01150
G1 X146.715 Y104.645 F10800.000
G1 E-2.00000 F3000.000
G1 X160.213 Y97.787 F10800.000
G1 E2.00000 F1500.000
;TYPE:Perimeter
G1 F1200.000
G1 X160.213 Y112.213 E0.49754
M73 Q1 S42
G1 X89.787 Y112.213 E2.42897
M73 P1 R42
G1 X89.787 Y97.787 E0.49754
G1 X160.153 Y97.787 E2.42690
G1 X160.590 Y97.410 F10800.000
;TYPE:External perimeter
G1 F1200.000
G1 X160.590 Y112.590 E0.52355
G1 X89.410 Y112.590 E2.45498
G1 X89.410 Y97.410 E0.52355
G1 X160.530 Y97.410 E2.45291
G1 X160.415 Y97.770 F10800.000
G1 X159.335 Y97.900
;TYPE:Solid infill
;WIDTH:0.420974
G1 F1200.000
G1 X159.930 Y98.495 E0.02908
G1 X159.930 Y99.029 E0.01849
G1 X158.971 Y98.070 E0.04693
G1 X158.436 Y98.070 E0.01849
G1 X159.930 Y99.564 E0.07307
G1 X159.930 Y100.099 E0.01849
G1 X157.901 Y98.070 E0.09922
G1 X157.367 Y98.070 E0.01849
G1 X159.930 Y100.633 E0.12536
G1 X159.930 Y101.168 E0.01849
G1 X156.832 Y98.070 E0.15151
G1 X156.297 Y98.070 E0.01849
G1 X159.930 Y101.703 E0.17765
G1 X159.930 Y102.237 E0.01849
G1 X155.763 Y98.070 E0.20380
G1 X155.228 Y98.070 E0.01849
G1 X159.930 Y102.772 E0.22994
G1 X159.930 Y103.307 E0.01849
G1 X154.693 Y98.070 E0.25609
G1 X154.159 Y98.070 E0.01849
G1 X159.930 Y103.841 E0.28224
G1 X159.930 Y104.376 E0.01849
G1 X153.624 Y98.070 E0.30838
G1 X153.089 Y98.070 E0.01849
G1 X159.930 Y104.911 E0.33453
G1 X159.930 Y105.445 E0.01849
G1 X152.555 Y98.070 E0.36067
G1 X152.020 Y98.070 E0.01849
G1 X159.930 Y105.980 E0.38682
G1 X159.930 Y106.515 E0.01849
G1 X151.485 Y98.070 E0.41296
G1 X150.951 Y98.070 E0.01849
G1 X159.930 Y107.049 E0.43911
G1 X159.930 Y107.584 E0.01849
G1 X150.416 Y98.070 E0.46525
G1 X149.881 Y98.070 E0.01849
G1 X159.930 Y108.119 E0.49140
G1 X159.930 Y108.653 E0.01849
G1 X149.347 Y98.070 E0.51754
G1 X148.812 Y98.070 E0.01849
G1 X159.930 Y109.188 E0.54369
M73 P2 R42
M73 Q2 S42
G1 X159.930 Y109.722 E0.01849
G1 X148.278 Y98.070 E0.56983
G1 X147.743 Y98.070 E0.01849
G1 X159.930 Y110.257 E0.59598
G1 X159.930 Y110.792 E0.01849
G1 X147.208 Y98.070 E0.62212
G1 X146.674 Y98.070 E0.01849
G1 X159.930 Y111.326 E0.64827
G1 X159.930 Y111.861 E0.01849
G1 X146.139 Y98.070 E0.67442
G1 X145.604 Y98.070 E0.01849
G1 X159.465 Y111.930 E0.67779
G1 X158.930 Y111.930 E0.01849
G1 X151.591 Y104.591 E0.35889
G1 X151.615 Y105.150 E0.01933
G1 X158.395 Y111.930 E0.33158
G1 X157.861 Y111.930 E0.01849
G1 X151.547 Y105.617 E0.30874
G1 X151.531 Y105.714 E0.00342
G1 X151.408 Y106.012 E0.01114
G1 X157.326 Y111.930 E0.28941
G1 X156.791 Y111.930 E0.01849
G1 X151.229 Y106.367 E0.27203
G1 X151.011 Y106.685 E0.01330
G1 X156.257 Y111.930 E0.25651
G1 X155.722 Y111.930 E0.01849
G1 X150.748 Y106.956 E0.24326
G1 X150.445 Y107.188 E0.01319
G1 X155.187 Y111.930 E0.23192
G1 X154.653 Y111.930 E0.01849
